public/images/lyonsurface.svg

<svg width="39" height="44" viewBox="0 0 39 44" fill="none" xmlns="http://www.w3.org/2000/svg">
<path d="M26.6483 25.2812C26.4862 26.2535 26.4862 27.0638 26.3242 28.0361C26.3242 28.1982 26.1621 28.3603 26 28.6844C25.838 29.1706 25.5138 29.4947 24.8656 29.4947C24.5415 29.4947 24.3794 29.6567 24.2174 29.8188C23.7312 29.9809 23.5691 30.4671 23.5691 30.7912C23.8933 31.6015 23.7312 32.4118 23.5691 33.2221C23.245 34.3565 23.4071 35.3288 23.5691 36.4633C23.7312 37.1115 23.7312 37.5977 23.7312 38.2459C23.7312 38.408 23.7312 38.4079 23.5691 38.57C22.5968 38.7321 21.6244 38.8942 20.6521 39.0562C20.328 39.0562 20.3279 39.0562 20.3279 39.3803C20.49 40.6768 20.6521 42.1353 20.9762 43.4318C20.9762 43.5939 20.9762 43.7559 20.8141 43.7559C20.49 43.7559 20.1659 43.7559 19.8418 43.7559C18.8694 43.5939 18.0591 43.2697 17.2488 42.7836C17.0868 42.7836 17.0867 42.6215 16.9247 42.4595C16.1144 41.4871 15.6282 40.3527 15.3041 39.2183C14.98 38.2459 14.8179 37.1115 14.4938 35.9771C14.1697 34.3565 14.6559 32.7359 15.3041 31.2773C15.4661 31.1153 15.4662 30.7912 15.6282 30.6291C15.7903 30.305 16.1144 29.8188 16.2765 29.4947C16.6006 28.8465 17.0868 28.0361 17.4109 27.3879C18.2212 25.9294 19.0315 24.4709 19.8418 23.0123C20.0038 22.8503 20.0038 22.6882 20.1659 22.5261C21.1382 23.0123 22.1106 23.4985 23.245 23.9846C24.3794 24.4708 25.3518 24.957 26.4862 25.4432C26.6482 24.957 26.6483 25.1191 26.6483 25.2812Z" fill="#00AA8D"/>
<path d="M20.3248 1.45853C20.1628 1.9447 20.0007 2.43091 19.6766 2.75503C19.1904 3.40327 18.3801 3.88944 17.5698 4.21356C16.9216 4.53768 16.4354 4.86181 15.9492 5.18593C14.8148 5.99622 14.1666 6.96856 13.3563 8.10298V8.26505C13.3563 8.26505 13.3563 8.26506 13.3563 8.42712L13.1942 8.58914C13.0322 8.75119 12.8701 8.91328 12.8701 9.07534C12.3839 9.88564 11.8977 10.6959 11.4116 11.6683C11.0875 12.3165 10.9254 12.9648 11.0874 13.7751C11.0874 14.0992 11.2495 14.4233 11.5736 14.7474C11.8978 14.9095 12.0598 15.2336 12.2219 15.7198C12.3839 16.0439 12.546 16.5301 12.708 16.8542C12.8701 17.1783 13.0321 17.5024 13.5183 17.5024C13.8424 17.5024 14.0045 17.5024 14.3286 17.6645C14.4907 17.6645 14.4907 17.6645 14.4907 17.8265C14.4907 17.9886 14.4907 18.3127 14.4907 18.4748C14.4907 18.6368 14.3287 18.6368 14.0045 18.6368C13.6804 18.4748 13.3563 18.4748 13.0322 18.3127C13.0322 18.4748 13.0322 18.4748 13.0322 18.6368C13.0322 18.961 12.546 19.123 12.3839 18.961C12.2219 18.7989 11.7357 18.7989 11.5736 18.961V19.123C11.5736 19.6092 11.7357 20.0954 11.7357 20.5816C11.7357 20.9057 12.0598 21.0678 12.0598 21.3919C11.7357 21.3919 11.5736 21.2298 11.2495 21.2298C11.0874 21.2298 11.0875 21.2298 10.9254 21.0677C10.4392 20.9057 9.95301 20.5816 9.46684 20.0954C9.14272 19.6092 8.49448 19.4471 7.84624 19.2851C6.87388 19.2851 5.90155 19.123 4.92919 18.961C4.76713 18.961 4.76711 18.961 4.60505 18.961C4.60505 18.7989 4.76712 18.7989 4.76712 18.7989C5.09124 18.3127 5.41537 17.8266 5.73949 17.3404C5.73949 17.1783 5.90156 17.1783 5.90156 17.0163C5.90156 16.8542 5.90156 16.5301 5.90156 16.368C5.90156 16.0439 5.90153 15.8819 6.22565 15.7198C6.38771 15.7198 6.54977 15.5577 6.38772 15.2336C6.38772 15.2336 6.38771 15.0715 6.22565 15.0715C6.06359 14.9095 6.06359 14.5854 6.22565 14.5854C6.71182 14.4233 6.71185 14.0992 6.71185 13.613C6.71185 13.2889 6.71183 13.1268 6.38772 12.9648C5.90154 12.6406 5.73949 12.1545 5.73949 11.6683C5.57743 11.0201 5.7395 10.2097 5.90156 9.5615C5.90156 9.39944 5.90156 9.2374 5.90156 9.07534C5.57744 9.07534 5.2533 9.07535 4.76712 9.23741C4.443 9.23741 4.28094 9.39943 3.95682 9.39943C3.79476 9.39943 3.79475 9.39947 3.79475 9.23741C3.79475 8.91329 3.63271 8.7512 3.30859 8.7512C3.63271 8.58915 3.79477 8.42711 4.11889 8.26505C4.44301 8.10299 4.76713 7.77888 4.92919 7.61682C5.09125 7.45476 5.09127 7.45476 5.25333 7.61682C5.57745 7.77888 5.90153 7.94092 6.22565 8.10298C6.38771 8.26504 6.54978 8.26504 6.54978 8.10298L6.71185 7.94091C7.03597 7.77885 7.198 7.45473 7.03594 7.13061C7.36006 7.13061 7.84626 7.13062 8.17038 7.29268C8.33244 7.29268 8.65654 7.29266 8.65654 6.96854C9.30478 7.45472 9.95303 7.94093 10.6013 8.26505C10.7633 7.94093 10.7634 7.6168 10.9254 7.29268C10.9254 7.13062 11.0874 6.96854 11.0874 6.96854C11.5736 6.64442 11.8978 6.15827 12.3839 5.83415C12.8701 5.51003 13.0322 4.86181 13.1942 4.37563C13.1942 4.05151 13.1942 4.05148 13.6804 3.88942C13.6804 3.88942 13.6804 3.88942 13.8425 3.88942C13.8425 3.72736 13.8425 3.56533 13.8425 3.56533H14.0045C14.1666 3.56533 14.3286 3.56532 14.3286 3.40326C14.3286 3.2412 14.4907 2.91709 14.6528 2.75503C14.6528 2.59297 14.8148 2.59296 14.9769 2.59296C15.6251 2.59296 15.7872 2.59297 15.4631 1.94473C15.4631 1.78267 15.301 1.62059 15.301 1.45853C15.6251 1.45853 15.9492 1.45853 16.2734 1.45853C16.4354 1.45853 16.5975 1.45852 16.7595 1.29646C17.0836 1.1344 17.4078 0.810288 17.894 0.648228C18.056 0.486169 18.056 0.648228 18.2181 0.648228C18.3801 0.810288 18.5422 1.1344 18.8663 1.29646C19.0284 0.810278 19.3525 0.486179 19.5145 0C19.6766 0.486179 19.8386 0.810317 20.0007 1.13444C20.1628 1.45856 20.3249 1.6206 20.649 1.6206C20.3249 1.13442 20.3248 1.29647 20.3248 1.45853Z" fill="#00AA8D"/>
<path d="M35.5607 33.222C35.5607 33.3841 35.5607 33.5461 35.5607 33.7082C35.5607 34.6806 35.5607 35.815 35.7228 36.7874C35.7228 36.9494 35.7228 36.9494 35.7228 37.1115C35.3987 37.1115 35.2366 37.1114 34.9125 36.9494C34.1022 36.9494 33.2919 36.6253 32.4816 36.3012C31.1851 35.815 29.7266 35.1667 28.4301 34.6806C28.268 34.6806 28.268 34.5185 28.106 34.5185C27.7818 34.1944 27.4577 33.7082 27.2957 33.3841C27.2957 33.3841 27.1336 33.222 26.9716 33.222C26.4854 33.222 25.9992 33.3841 25.5131 33.5462L25.351 33.7082C25.351 34.8426 25.5131 35.977 25.5131 37.1115C25.5131 37.4356 25.5131 37.9218 25.5131 38.2459C25.0269 38.0838 24.5407 38.0838 24.0545 38.0838L23.8925 37.9218C23.7304 37.1115 23.7304 36.4632 23.5683 35.6529C23.5683 35.1668 23.4062 34.8427 23.4062 34.3565C23.4062 33.8703 23.5683 33.5461 23.5683 33.06C23.7304 32.4117 23.7304 31.7635 23.8925 31.2773C23.8925 31.1152 23.7304 30.7911 23.7304 30.6291C23.7304 30.305 23.7304 30.1429 23.7304 29.8188C23.7304 29.6567 23.8924 29.6567 24.0545 29.4947C24.5407 29.3326 25.0269 29.1705 25.351 29.0085C25.513 29.0085 25.513 28.8464 25.6751 28.6844C26.3233 27.8741 26.3233 26.9017 26.4854 25.9294C26.4854 25.6052 26.4854 25.119 26.4854 24.7949C26.9715 24.957 27.2957 25.1191 27.6198 25.2811C29.0783 25.9294 30.5369 26.5776 31.9954 27.2258C32.1575 27.2258 32.3195 27.3879 32.3195 27.55C32.3195 27.712 32.4816 27.712 32.4816 27.712C32.9678 27.712 33.2919 27.712 33.7781 27.712C33.9401 27.712 34.1022 27.712 34.2643 27.8741C34.9125 28.1982 35.5607 28.5223 36.371 28.8464C36.5331 28.8464 36.5331 29.0085 36.5331 29.1705C36.371 30.6291 35.8848 31.9256 35.5607 33.222Z" fill="#00AA8D"/>
<path d="M17.4124 20.5817L17.2503 20.7437C17.0883 21.0679 16.7642 21.2299 16.6021 21.554C16.1159 22.2023 15.9539 23.0126 15.6298 23.6608V23.8229C15.3056 24.7953 15.3056 24.7953 14.4953 25.4435C14.4953 25.4435 14.3333 25.4435 14.1712 25.4435C13.8471 25.4435 13.523 25.2814 13.1989 25.2814C13.0368 25.2814 12.8747 25.2815 12.8747 25.4435C12.8747 25.4435 12.8747 25.6055 12.7127 25.6055C12.5506 25.7676 12.5506 25.9297 12.2265 25.9297C12.0644 25.9297 11.9024 25.9297 11.9024 26.0917C11.9024 26.0917 11.7403 26.0918 11.7403 26.2538C11.7403 26.2538 11.5783 26.0917 11.7403 26.0917C11.9024 25.7676 11.7403 25.7676 11.4162 25.6055C10.768 25.2814 9.95768 25.1194 9.30944 24.7952C9.14738 24.7952 8.9853 24.7952 8.9853 24.7952C8.9853 24.7952 8.82322 24.9573 8.66116 24.9573C8.33704 25.2814 8.01295 25.4435 7.52677 25.4435C7.36472 25.4435 7.20263 25.6055 7.04057 25.6055C5.90615 26.4158 4.77177 27.0641 3.63736 27.8744C3.4753 28.0365 3.31321 28.0365 3.15115 27.8744C2.82703 27.5503 2.34088 27.2262 2.01676 26.902C1.8547 26.74 1.69261 26.74 1.53055 26.74C1.36849 26.74 1.36852 26.74 1.20646 26.5779C0.882344 26.0917 0.396146 25.6056 0.0720265 25.1194C-0.0900331 24.9573 0.0720265 24.7953 0.0720265 24.4711C0.0720265 24.147 0.234106 24.147 0.396165 24.147C1.0444 23.9849 1.53054 23.8229 2.17878 23.6608C2.34084 23.6608 2.50293 23.6608 2.66499 23.6608C2.82705 23.6608 2.98912 23.6608 2.82706 23.4988C2.82706 23.1747 2.82706 23.0126 2.82706 22.6885C2.82706 22.5264 2.82702 22.5264 2.98908 22.3643C3.3132 22.0402 3.47526 21.8782 3.79938 21.7161C3.96144 21.5541 3.96146 21.392 4.12352 21.23C4.28557 20.5817 4.28559 19.9335 4.44765 19.2852C4.44765 18.9611 4.44763 18.9611 4.93381 18.9611C5.90617 18.9611 6.87851 19.1232 7.85086 19.2852C8.17498 19.2852 8.4991 19.2852 8.66116 19.4473C9.14734 19.6094 9.63355 19.9335 9.95767 20.4197C10.1197 20.5817 10.1197 20.5817 10.2818 20.7437C10.6059 20.9058 10.93 21.0679 11.2541 21.23C11.5782 21.392 11.9024 21.23 12.2265 21.23C12.0644 20.9058 11.7403 20.7438 11.7403 20.4197C11.5783 20.0955 11.5783 19.7714 11.5783 19.4473C11.5783 18.9611 11.5782 18.9611 12.0644 18.7991H12.2265C12.3886 18.9611 12.8747 18.9611 13.0368 18.7991C13.1988 18.637 13.1989 18.4749 13.1989 18.3129C13.523 18.3129 13.685 18.4749 14.0092 18.4749C14.3333 18.637 14.4953 18.475 14.4953 18.1508C14.4953 17.9888 14.4953 17.6646 14.6574 17.5026L14.8195 17.3405C15.6298 17.1785 16.278 17.1785 17.0883 17.1785C17.4124 17.1785 17.4124 17.3405 17.5744 17.5026C17.7365 18.4749 17.5745 19.4473 17.4124 20.5817Z" fill="#00AA8D"/>
<path d="M38.8009 23.4985C38.4768 24.957 38.1527 26.4156 37.5045 27.7121C37.3424 28.1982 37.0183 28.5223 36.8562 29.0085C36.0459 28.6844 35.3976 28.3603 34.5874 28.0362C34.4253 28.0362 34.2633 27.8741 34.1012 27.8741C33.7771 27.8741 33.2909 27.8741 32.9668 27.8741C32.8047 27.8741 32.8047 27.8741 32.6427 27.7121C32.6427 27.55 32.4806 27.55 32.4806 27.3879C30.6979 26.5776 28.9153 25.7673 26.9706 25.1191C25.512 24.4709 24.2156 23.8226 22.757 23.3364C21.9467 23.0123 21.1364 22.6882 20.4882 22.202C20.3261 22.202 20.3261 22.04 20.1641 22.04C20.3261 21.7159 20.3261 21.3917 20.3261 21.0676C20.3261 20.4194 20.3261 19.9332 20.3261 19.2849C20.3261 19.1229 20.3261 18.9609 20.4882 18.9609C21.4606 18.9609 22.595 18.7988 23.5673 18.7988C25.512 18.7988 27.2947 18.6367 29.2394 18.6367C29.4015 18.6367 29.5635 18.6367 29.5635 18.7988L29.7256 18.9609C29.8876 19.447 30.2118 19.7712 30.6979 19.7712C30.86 19.7712 30.86 19.9332 30.86 20.0952C30.86 20.2573 30.6979 20.5814 30.86 20.7435C30.86 20.9055 31.1841 20.9055 31.3462 20.9055L31.5082 21.0676C31.5082 21.3917 31.5082 21.7159 31.5082 22.202C31.5082 22.3641 31.5082 22.5261 31.8324 22.5261C32.9668 22.5261 34.1012 22.6882 35.2356 22.6882C35.3977 22.6882 35.7218 22.6882 35.8839 22.6882C36.8562 22.5261 37.6665 22.8502 38.4768 23.1744C38.8009 23.3364 38.8009 23.3364 38.8009 23.4985Z" fill="#00AA8D"/>
<path d="M29.4055 18.4749C26.4884 18.6369 23.4093 18.6369 20.4922 18.799C20.4922 18.6369 20.4922 18.4749 20.4922 18.3128C20.4922 17.1784 20.4922 16.044 20.4922 14.9096C20.4922 13.9372 20.4922 12.9649 20.9783 12.1546C20.9783 11.9925 21.1404 11.9925 21.1404 11.8304C21.9507 10.8581 22.5989 10.0478 23.4092 9.2375C23.5713 9.07544 23.8954 8.91336 24.0575 8.7513C24.5436 8.26512 25.354 8.4272 26.0022 8.26514C26.1643 8.26514 26.1643 8.42717 26.1643 8.58923C26.1643 9.72364 26.1643 10.696 26.1643 11.8304C26.1643 12.8028 26.1643 13.7752 26.1643 14.7475C26.1643 14.9096 26.1643 15.0716 26.3263 15.0716C26.8125 15.2337 26.9746 15.5578 27.1366 15.8819C27.2987 16.044 27.2987 16.2061 27.4607 16.3681C27.6228 16.6922 27.7848 16.8543 28.109 16.8543C28.271 17.0163 28.271 17.1784 28.4331 17.3405C28.5952 17.6646 28.9193 17.8267 29.2434 18.1508C29.4055 18.1508 29.4055 18.3128 29.4055 18.4749Z" fill="#00AA8D"/>
<path d="M20.4907 20.4193C20.4907 20.7434 20.4907 21.0675 20.3286 21.2296C20.1665 21.8778 19.8424 22.526 19.5183 23.1743C18.5459 24.7949 17.7356 26.5776 16.7633 28.3602C16.6012 28.5223 16.6012 28.6843 16.4392 28.8464C15.4668 30.3049 14.6565 31.7635 14.4944 33.5461C14.4944 33.8702 14.3324 34.1943 14.3324 34.5184C14.3324 34.3564 14.1704 34.3564 14.1704 34.3564C13.6842 33.7082 13.36 33.222 12.8739 32.5738C12.7118 32.4117 12.7118 32.2497 12.5498 31.9255C12.2256 31.1152 12.2256 30.1429 12.3877 29.3326C12.5498 28.0361 12.8739 26.9017 13.8462 25.7672C14.1703 25.2811 14.6565 24.957 15.1427 24.6329C15.3047 24.4708 15.3048 24.3087 15.4668 24.3087C15.6289 23.6605 15.953 22.8502 16.115 22.202C16.2771 21.8778 16.4392 21.5537 16.7633 21.2296C16.7633 21.0675 16.9253 21.0675 16.9253 21.0675C17.4115 20.5813 17.5736 20.0952 17.5736 19.2849C17.5736 19.1228 17.5736 19.1228 17.5736 18.9608C17.5736 18.4746 17.5736 18.3125 18.2218 18.4746C18.708 18.4746 19.0321 18.4746 19.3562 18.3125C19.5183 18.3125 19.5183 18.1505 19.5183 17.9884C19.5183 17.8263 19.6804 17.6643 19.8424 17.6643C20.0045 17.6643 20.1665 17.6643 20.3286 17.5022C20.3286 17.8263 20.3286 18.1504 20.3286 18.4746C20.3286 19.2849 20.4907 19.9331 20.4907 20.4193Z" fill="#00AA8D"/>
<path d="M20.8125 12.1544C20.4883 12.9647 20.4884 13.7749 20.3263 14.5852C20.0022 14.4232 19.8401 14.2611 19.516 14.0991C19.1919 13.937 19.0298 13.937 18.7057 13.937C17.7333 14.0991 16.761 14.2611 15.9507 14.4232C15.6266 14.4232 15.4645 14.5853 15.1404 14.7473C14.4921 15.0714 13.8439 15.2335 13.1957 15.5576C12.8716 15.7197 12.5474 15.8817 12.0613 16.0438V15.8817C11.8992 15.3955 11.5751 14.9094 11.251 14.5852C11.0889 14.4232 10.9269 14.0991 10.9269 13.7749C10.7648 13.1267 10.9268 12.4785 11.251 11.8302C11.7371 10.6958 12.3854 9.56138 13.1957 8.58902V8.427C13.3577 8.26494 13.5198 8.10286 13.8439 7.9408C14.006 8.10286 14.3301 8.26491 14.6542 8.58902C14.6542 8.75108 14.4921 8.7511 14.4921 8.91316C14.8163 9.07522 14.9784 9.56141 14.9784 9.88553C14.9784 10.0476 15.1404 10.2096 15.1404 10.2096C15.6266 10.3717 16.1127 10.6958 16.761 10.8579C16.923 10.8579 17.0851 11.0199 17.2472 10.6958L17.4092 10.5338L17.5713 10.6958V10.8579C17.5713 11.02 17.5713 11.0199 17.7333 11.0199C18.0575 11.0199 18.5437 11.182 18.8678 11.182C19.0298 11.182 19.1919 11.0199 19.3539 11.0199C19.678 10.6958 19.678 10.6958 20.0022 11.0199C20.3263 11.344 20.6504 11.6682 20.8125 11.9923C20.8125 11.9923 20.8125 11.9923 20.8125 12.1544Z" fill="#00AA8D"/>
<path d="M19.9995 17.6644C19.8374 17.6644 19.8375 17.6644 19.6754 17.6644C19.5134 17.6644 19.3513 17.8265 19.3513 17.9886C19.3513 18.1506 19.3513 18.1506 19.1892 18.3127C18.8651 18.3127 18.541 18.4747 18.2169 18.4747C18.0548 18.4747 17.7307 18.4747 17.5686 18.4747C17.2445 17.9886 17.0824 17.6645 16.9204 17.3404C16.9204 17.1783 16.7583 17.1783 16.5963 17.1783C16.1101 17.1783 15.6239 17.1783 15.1377 17.1783C14.6515 17.1783 14.1654 17.3404 13.6792 17.3404C12.8689 17.3404 12.5448 17.1783 12.2207 16.368C12.2207 16.2059 12.0586 16.0438 12.0586 15.8818C12.5448 15.7197 13.0309 15.3956 13.5171 15.2336C14.0033 15.0715 14.6515 14.9094 15.1377 14.5853C15.4618 14.2612 15.948 14.4232 16.4342 14.2612C17.2445 14.0991 18.0548 13.9371 18.8651 13.775C19.0272 13.775 19.0271 13.775 19.1892 13.775C19.5133 13.9371 19.6754 14.0991 19.9995 14.2612C20.1616 14.4232 20.1616 14.4233 20.1616 14.5853C20.1616 15.3956 20.1616 16.2059 20.1616 17.0162C20.3236 17.5024 20.3236 17.6644 19.9995 17.6644Z" fill="#00AA8D"/>
</svg>

<svg xmlns="http://www.w3.org/2000/svg" viewBox="0 0 38.8 43.76"><defs><style>.cls-1{fill:#76b7ce;}</style></defs><g id="Layer_2" data-name="Layer 2"><g id="Layer_1-2" data-name="Layer 1"><path class="cls-1" d="M26.65,25.28c-.16,1-.16,1.78-.33,2.76,0,.16-.16.32-.32.64a1.08,1.08,0,0,1-1.13.81.84.84,0,0,0-.65.33,1,1,0,0,0-.65,1,4.19,4.19,0,0,1,0,2.43,7.38,7.38,0,0,0,0,3.24,6.79,6.79,0,0,1,.16,1.79c0,.16,0,.16-.16.32l-2.92.49c-.32,0-.32,0-.32.32a33.13,33.13,0,0,0,.65,4c0,.16,0,.33-.17.33h-1a7.25,7.25,0,0,1-2.59-1c-.16,0-.16-.16-.33-.32a8.82,8.82,0,0,1-1.62-3.24c-.32-1-.48-2.11-.81-3.24a8,8,0,0,1,.81-4.7c.17-.16.17-.49.33-.65.16-.32.48-.81.65-1.14.32-.64.81-1.45,1.13-2.1L19.84,23c.16-.16.16-.32.33-.48,1,.48,1.94,1,3.08,1.45s2.1,1,3.24,1.46C26.65,25,26.65,25.12,26.65,25.28Z"/><path class="cls-1" d="M20.32,1.46a3.37,3.37,0,0,1-.64,1.3,5,5,0,0,1-2.11,1.45,14.4,14.4,0,0,0-1.62,1A11.1,11.1,0,0,0,13.36,8.1v.33l-.17.16c-.16.16-.32.32-.32.49-.49.81-1,1.62-1.46,2.59a3.13,3.13,0,0,0-.32,2.11,1.42,1.42,0,0,0,.48,1c.33.16.49.48.65,1,.16.32.33.81.49,1.13s.32.65.81.65a1.49,1.49,0,0,1,.81.16c.16,0,.16,0,.16.17v.64c0,.17-.16.17-.49.17-.32-.17-.64-.17-1-.33v.33a.44.44,0,0,1-.65.32.74.74,0,0,0-.81,0v.16c0,.49.17,1,.17,1.46s.32.49.32.81c-.32,0-.49-.16-.81-.16-.16,0-.16,0-.32-.16a3.8,3.8,0,0,1-1.46-1,2.6,2.6,0,0,0-1.62-.81A18,18,0,0,1,4.93,19H4.61a.16.16,0,0,1,.16-.16l1-1.46c0-.16.16-.16.16-.32v-.65c0-.33,0-.49.33-.65.16,0,.32-.16.16-.49a.16.16,0,0,0-.16-.16c-.17-.16-.17-.48,0-.48.48-.17.48-.49.48-1,0-.32,0-.48-.32-.65a1.46,1.46,0,0,1-.65-1.29A4.74,4.74,0,0,1,5.9,9.56V9.08a3.17,3.17,0,0,0-1.13.16c-.33,0-.49.16-.81.16-.17,0-.17,0-.17-.16a.43.43,0,0,0-.48-.49c.32-.16.48-.32.81-.48a3.88,3.88,0,0,0,.81-.65c.16-.17.16-.17.32,0l1,.48c.16.17.32.17.32,0l.16-.16A.59.59,0,0,0,7,7.13a2.77,2.77,0,0,1,1.13.16c.16,0,.49,0,.49-.32a14,14,0,0,0,1.94,1.3c.16-.33.16-.65.33-1A.56.56,0,0,1,11.09,7c.48-.33.81-.81,1.29-1.14a2.58,2.58,0,0,0,.81-1.45c0-.33,0-.33.49-.49h.16V3.57H14c.17,0,.33,0,.33-.17a1.21,1.21,0,0,1,.32-.64c0-.17.16-.17.33-.17.65,0,.81,0,.48-.65,0-.16-.16-.32-.16-.48h1a.6.6,0,0,0,.49-.16A6.38,6.38,0,0,1,17.89.65c.17-.16.17,0,.33,0,.16.16.32.48.65.65.16-.49.48-.81.64-1.3A8.58,8.58,0,0,0,20,1.13c.16.33.32.49.65.49C20.32,1.13,20.32,1.3,20.32,1.46Z"/><path class="cls-1" d="M35.56,33.22v.49a19.94,19.94,0,0,0,.16,3.08v.32a1.49,1.49,0,0,1-.81-.16,6.67,6.67,0,0,1-2.43-.65c-1.29-.49-2.75-1.13-4-1.62-.16,0-.16-.16-.32-.16a4.72,4.72,0,0,1-.81-1.14.6.6,0,0,0-.33-.16,4.59,4.59,0,0,0-1.46.33l-.16.16c0,1.13.16,2.27.16,3.4v1.14a4.27,4.27,0,0,0-1.46-.17l-.16-.16c-.16-.81-.16-1.46-.32-2.27,0-.48-.16-.81-.16-1.29s.16-.81.16-1.3c.16-.65.16-1.3.32-1.78,0-.16-.16-.49-.16-.65v-.81c0-.16.16-.16.32-.33a10.8,10.8,0,0,0,1.3-.48c.16,0,.16-.16.33-.33a5.62,5.62,0,0,0,.81-2.75V24.79a9.21,9.21,0,0,1,1.13.49L32,27.23a.34.34,0,0,1,.32.32.16.16,0,0,0,.16.16h1.3a.59.59,0,0,1,.48.16c.65.33,1.3.65,2.11,1,.16,0,.16.16.16.32A29.64,29.64,0,0,1,35.56,33.22Z"/><path class="cls-1" d="M17.41,20.58l-.16.16c-.16.33-.49.49-.65.81a12.39,12.39,0,0,0-1,2.11v.16a2.29,2.29,0,0,1-1.13,1.62h-.33c-.32,0-.65-.16-1-.16-.16,0-.33,0-.33.16,0,0,0,.17-.16.17-.16.16-.16.32-.48.32-.17,0-.33,0-.33.16a.16.16,0,0,0-.16.16s-.16-.16,0-.16c.16-.32,0-.32-.32-.48-.65-.33-1.46-.49-2.11-.81H9a.6.6,0,0,1-.33.16,1.47,1.47,0,0,1-1.13.48c-.17,0-.33.17-.49.17-1.13.81-2.27,1.45-3.4,2.26a.3.3,0,0,1-.49,0c-.32-.32-.81-.64-1.13-1a.62.62,0,0,0-.49-.16c-.16,0-.16,0-.32-.16-.33-.49-.81-1-1.14-1.46-.16-.16,0-.32,0-.65s.16-.32.33-.32c.64-.17,1.13-.33,1.78-.49h.48c.17,0,.33,0,.17-.16v-.81c0-.16,0-.16.16-.33a2.84,2.84,0,0,1,.81-.64c.16-.17.16-.33.32-.49.17-.65.17-1.3.33-1.94,0-.33,0-.33.48-.33a17,17,0,0,1,2.92.33,1.23,1.23,0,0,1,.81.16,2.5,2.5,0,0,1,1.3,1l.32.32,1,.49c.33.16.65,0,1,0-.17-.32-.49-.49-.49-.81a2.07,2.07,0,0,1-.16-1c0-.49,0-.49.48-.65h.17a.74.74,0,0,0,.81,0,.61.61,0,0,0,.16-.49c.32,0,.49.16.81.16.32.17.49,0,.49-.32a1,1,0,0,1,.16-.65l.16-.16a10.85,10.85,0,0,1,2.27-.16c.32,0,.32.16.48.32A9.91,9.91,0,0,1,17.41,20.58Z"/><path class="cls-1" d="M38.8,23.5a17.77,17.77,0,0,1-1.3,4.21c-.16.49-.48.81-.64,1.3-.81-.33-1.46-.65-2.27-1-.16,0-.33-.17-.49-.17H33c-.17,0-.17,0-.33-.16,0-.16-.16-.16-.16-.32A55.69,55.69,0,0,0,27,25.12a44.5,44.5,0,0,0-4.21-1.78,10,10,0,0,1-2.27-1.14c-.16,0-.16-.16-.33-.16a2,2,0,0,0,.17-1V19.28c0-.16,0-.32.16-.32,1,0,2.1-.16,3.08-.16,1.94,0,3.72-.16,5.67-.16.16,0,.32,0,.32.16l.17.16a1,1,0,0,0,1,.81c.16,0,.16.16.16.33s-.16.48,0,.64c0,.17.32.17.49.17l.16.16V22.2c0,.16,0,.33.32.33,1.14,0,2.27.16,3.41.16h.64a4.73,4.73,0,0,1,2.6.48C38.8,23.34,38.8,23.34,38.8,23.5Z"/><path class="cls-1" d="M29.41,18.47c-2.92.17-6,.17-8.92.33V14.91A5.23,5.23,0,0,1,21,12.15c0-.16.16-.16.16-.32.81-1,1.46-1.78,2.27-2.59.16-.16.49-.33.65-.49.48-.48,1.29-.32,1.94-.48.16,0,.16.16.16.32v6.16c0,.16,0,.32.17.32a1.37,1.37,0,0,1,.81.81c.16.16.16.33.32.49.16.32.32.48.65.48.16.17.16.33.32.49.17.32.49.49.81.81C29.41,18.15,29.41,18.31,29.41,18.47Z"/><path class="cls-1" d="M20.49,20.42a1.23,1.23,0,0,1-.16.81,9.75,9.75,0,0,1-.81,1.94c-1,1.62-1.78,3.41-2.76,5.19-.16.16-.16.32-.32.49a10.09,10.09,0,0,0-2,4.7c0,.32-.16.64-.16,1a.16.16,0,0,0-.16-.16c-.49-.65-.81-1.14-1.3-1.79-.16-.16-.16-.32-.32-.64a4.81,4.81,0,0,1-.16-2.6,6.17,6.17,0,0,1,1.46-3.56,4.42,4.42,0,0,1,1.29-1.14c.16-.16.16-.32.33-.32.16-.65.48-1.46.64-2.11a3.66,3.66,0,0,1,.65-1c0-.16.17-.16.17-.16a2.24,2.24,0,0,0,.64-1.79V19c0-.49,0-.65.65-.49a2.46,2.46,0,0,0,1.14-.16c.16,0,.16-.16.16-.32a.35.35,0,0,1,.32-.33.61.61,0,0,0,.49-.16v1C20.33,19.28,20.49,19.93,20.49,20.42Z"/><path class="cls-1" d="M20.81,12.15a13,13,0,0,0-.48,2.44c-.33-.17-.49-.33-.81-.49a1.49,1.49,0,0,0-.81-.16c-1,.16-1.95.32-2.76.48-.32,0-.49.17-.81.33-.65.32-1.3.48-1.94.81a8.16,8.16,0,0,1-1.14.48v-.16a3.42,3.42,0,0,0-.81-1.29,1.28,1.28,0,0,1-.32-.82,2.76,2.76,0,0,1,.32-1.94A13.43,13.43,0,0,1,13.2,8.59V8.43a2.05,2.05,0,0,1,.64-.49,9.05,9.05,0,0,1,.81.65c0,.16-.16.16-.16.32a1.16,1.16,0,0,1,.49,1,.56.56,0,0,0,.16.32,17,17,0,0,0,1.62.65c.16,0,.33.16.49-.16l.16-.17.16.17v.16c0,.16,0,.16.16.16.33,0,.81.16,1.14.16.16,0,.32-.16.48-.16.33-.32.33-.32.65,0a4.09,4.09,0,0,1,.81,1Z"/><path class="cls-1" d="M20,17.66h-.32a.35.35,0,0,0-.33.33c0,.16,0,.16-.16.32-.32,0-.65.16-1,.16h-.65a8.26,8.26,0,0,1-.65-1.13c0-.16-.16-.16-.32-.16H15.14c-.49,0-1,.16-1.46.16a1.26,1.26,0,0,1-1.46-1c0-.16-.16-.33-.16-.49.48-.16,1-.48,1.46-.65a7,7,0,0,0,1.62-.64c.32-.33.81-.17,1.29-.33l2.44-.49h.32c.32.17.49.33.81.49.16.16.16.16.16.33V17C20.32,17.5,20.32,17.66,20,17.66Z"/></g></g></svg>
